X:1
T:[ID 2-40a]
T:[ID 2-40a]
T:Bezeichnung standardisiert: Menuett Men\"uet 5.
T:Urheber unbekannt Datum in der hier transkribierten schriftlichen Quelle: 1767
C:Urheber unbekannt
C:Datum in der hier transkribierten schriftlichen Quelle: 1767
L:1/8
M:3/4
K:C
V:1 treble 
V:1
 E2 c2 e2 | f4 df | e4 ce | d2 B2 GE | E2 D2{D} E2 | GA TB4 | G2 D2 C2 | B,6 :: B2 B2 B2 | d4 c2 | %10
 g4 f2 | dedcBA | (3GAB B4 | C2 c2 e2 |{e} f4 df | e4 ce | d2 c2 GF | E6 :| %18

